!!!OTL: Der Meierin Sohn Stoji, stoji mi beli grad,
!!!ARE: Europa, Suedosteuropa, Jugoslavija, Slowenien, Krain
!!!YOR: 4, S. 249
!!    1881 gedruckt in Zagreb
!!!SCT: Q3083E
!!!YEM: Copyright 1995, estate of Helmut Schaffrath.
**kern
*ICvox
*Ivox
*M2/4
*k[f#]
*G:
=1
{4d
4g
=2
4b
4a
=3
8cc
8a
8g
16g
16b
=4
4.a
8r}
=5
{4f#
16f#
16a
16dd
16b
=6
4b
8a
8g
=7
4f#
4a
=8
4.g
8r}
=9
{4f#
16f#
16a
16dd
16b
=10
4b
8a
8g
=11
4f#
4a
=12
2g}
==
!!!AGN: ???
!! Melodievergleich zu Q0083A, anderes Lied.
!!!ONB: ESAC (Essen Associative Code) Database: BALLADE
!!!AMT: simple duple
!!!AIN: vox
!!!EED: Helmut Schaffrath
!!!EEV: 1.0
*-
